T: Ask My Father
M: 12/8
L: 1/8
K: Gmaj
AG|:F2D ~D3 F2D D2F | A2c BAG A3 A2G | F2D ~D3 F2D D2F |1 G2B AGF G3 A2G :|2 G2B AGF G3 F2G |
A2d- d2e f2d cAG |1 A2c BAG A3 F2G | A2d- d2e f2d cAF  | G2B AGF G3 F2G :|2 A2c BAG A3 f2g | agf gfe f2d cAF | G2B AGF G3 |
